X:1052
T:BALANCIERES de PLAINTEL
Z: Yves BELOTTEAU
M:4/4
L:1/8
Q:1/4=60
K:G
|GAG3/2E/2 FGA3/2G/2|AcB2 A2G2|GAG3/2E/2 FGA3/2G/2|AcB2 A2G2|
GBGB dd/2c/2BA|GBA2 d2G2|GBGB dd/2c/2BA|GBA2 d2G2|


